svgs/duotone/fax.svg

<svg xmlns="http://www.w3.org/2000/svg" viewBox="0 0 512 512"><!-- Font Awesome Pro 6.0.0-alpha2 by @fontawesome - https://fontawesome.com License - https://fontawesome.com/license (Commercial License) --><defs><style>.fa-secondary{opacity:.4}</style></defs><path d="M272 256H240C231.125 256 224 263.125 224 272V304C224 312.875 231.125 320 240 320H272C280.875 320 288 312.875 288 304V272C288 263.125 280.875 256 272 256ZM272 384H240C231.125 384 224 391.125 224 400V432C224 440.875 231.125 448 240 448H272C280.875 448 288 440.875 288 432V400C288 391.125 280.875 384 272 384ZM400 384H368C359.125 384 352 391.125 352 400V432C352 440.875 359.125 448 368 448H400C408.875 448 416 440.875 416 432V400C416 391.125 408.875 384 400 384ZM400 256H368C359.125 256 352 263.125 352 272V304C352 312.875 359.125 320 368 320H400C408.875 320 416 312.875 416 304V272C416 263.125 408.875 256 400 256ZM470.625 54.625L425.375 9.375C419.375 3.375 411.219 0 402.75 0H160C142.344 0 128 14.328 128 32V192H192V64H389.49L416 90.51V192H480V77.25C480 68.766 476.625 60.625 470.625 54.625Z" class="fa-secondary"/><path d="M64 128H32C14.375 128 0 142.375 0 160V480C0 497.625 14.375 512 32 512H64C81.625 512 96 497.625 96 480V160C96 142.375 81.625 128 64 128ZM480 192H128V480C128 497.6 142.4 512 160 512H480C497.6 512 512 497.6 512 480V224C512 206.326 497.674 192 480 192ZM288 432C288 440.875 280.875 448 272 448H240C231.125 448 224 440.875 224 432V400C224 391.125 231.125 384 240 384H272C280.875 384 288 391.125 288 400V432ZM288 304C288 312.875 280.875 320 272 320H240C231.125 320 224 312.875 224 304V272C224 263.125 231.125 256 240 256H272C280.875 256 288 263.125 288 272V304ZM416 432C416 440.875 408.875 448 400 448H368C359.125 448 352 440.875 352 432V400C352 391.125 359.125 384 368 384H400C408.875 384 416 391.125 416 400V432ZM416 304C416 312.875 408.875 320 400 320H368C359.125 320 352 312.875 352 304V272C352 263.125 359.125 256 368 256H400C408.875 256 416 263.125 416 272V304Z" class="fa-primary"/></svg>

<svg xmlns="http://www.w3.org/2000/svg" viewBox="0 0 512 512"><!--! Font Awesome Pro 6.3.0 by @fontawesome - https://fontawesome.com License - https://fontawesome.com/license (Commercial License) Copyright 2023 Fonticons, Inc. --><defs><style>.fa-secondary{opacity:.4}</style></defs><path class="fa-primary" d="M64 128H32C14.38 128 0 142.4 0 160v320c0 17.62 14.38 32 32 32h32c17.62 0 32-14.38 32-32V160C96 142.4 81.63 128 64 128zM480 192H128v288c0 17.6 14.4 32 32 32h320c17.6 0 32-14.4 32-32V224C512 206.3 497.7 192 480 192zM288 432c0 8.875-7.125 16-16 16h-32C231.1 448 224 440.9 224 432v-32C224 391.1 231.1 384 240 384h32c8.875 0 16 7.125 16 16V432zM288 304c0 8.875-7.125 16-16 16h-32C231.1 320 224 312.9 224 304v-32C224 263.1 231.1 256 240 256h32C280.9 256 288 263.1 288 272V304zM416 432c0 8.875-7.125 16-16 16h-32c-8.875 0-16-7.125-16-16v-32c0-8.875 7.125-16 16-16h32c8.875 0 16 7.125 16 16V432zM416 304c0 8.875-7.125 16-16 16h-32C359.1 320 352 312.9 352 304v-32C352 263.1 359.1 256 368 256h32C408.9 256 416 263.1 416 272V304z"/><path class="fa-secondary" d="M272 256h-32C231.1 256 224 263.1 224 272v32C224 312.9 231.1 320 240 320h32c8.875 0 16-7.125 16-16v-32C288 263.1 280.9 256 272 256zM272 384h-32C231.1 384 224 391.1 224 400v32C224 440.9 231.1 448 240 448h32c8.875 0 16-7.125 16-16v-32C288 391.1 280.9 384 272 384zM400 384h-32c-8.875 0-16 7.125-16 16v32c0 8.875 7.125 16 16 16h32c8.875 0 16-7.125 16-16v-32C416 391.1 408.9 384 400 384zM400 256h-32C359.1 256 352 263.1 352 272v32c0 8.875 7.125 16 16 16h32c8.875 0 16-7.125 16-16v-32C416 263.1 408.9 256 400 256zM470.6 54.63l-45.25-45.25C419.4 3.375 411.2 0 402.8 0H160C142.3 0 128 14.33 128 32v160h64V64h197.5L416 90.51V192h64V77.25C480 68.77 476.6 60.63 470.6 54.63z"/></svg>
